X:295
T:Reel
B:Joyce, P. W.; "Old Irish Folk Music and Songs"
N:See #286 for history
A:Kilkenny
O:Irish
R:reel
L:1/8
M:C
Z:Allan Garvin
K:D
dcBA BFFA|GFEF GABc|dcBA BFFA|(3Bcd ec dgfe|
dcBA BFFA|GFEF GABc|dcBA BFFA|(3Bcd ec dDD2||
d2 (3efg fdec|(3dcB (3cBA BFFA|d2 (3efg fdec|dbag fd d2|
d2 (3efg fdec|(3dcB (3cBA BFFA|GABc defg|1agbg fdec:|2\
fdec dD D2|]
